evrofasad/img/icons/contacts.svg

<svg width="50" height="50" viewBox="0 0 50 50" fill="none" xmlns="http://www.w3.org/2000/svg">
<path d="M25.0063 0H24.9937C11.2094 0 0 11.2125 0 25C0 30.4688 1.7625 35.5375 4.75938 39.6531L1.64375 48.9406L11.2531 45.8688C15.2063 48.4875 19.9219 50 25.0063 50C38.7906 50 50 38.7844 50 25C50 11.2156 38.7906 0 25.0063 0Z" fill="#2DB1E6"/>
<path d="M39.5531 35.3033C38.95 37.0064 36.5562 38.4189 34.6468 38.8314C33.3406 39.1096 31.6343 39.3314 25.8906 36.9502C18.5437 33.9064 13.8125 26.4408 13.4437 25.9564C13.0906 25.4721 10.475 22.0033 10.475 18.4158C10.475 14.8283 12.2969 13.0814 13.0312 12.3314C13.6344 11.7158 14.6312 11.4346 15.5875 11.4346C15.8969 11.4346 16.175 11.4502 16.425 11.4627C17.1594 11.4939 17.5281 11.5377 18.0125 12.6971C18.6156 14.1502 20.0843 17.7377 20.2593 18.1064C20.4375 18.4752 20.6156 18.9752 20.3656 19.4596C20.1312 19.9596 19.925 20.1814 19.5562 20.6064C19.1875 21.0314 18.8375 21.3564 18.4687 21.8127C18.1312 22.2096 17.75 22.6346 18.175 23.3689C18.6 24.0877 20.0687 26.4846 22.2312 28.4096C25.0219 30.8939 27.2843 31.6877 28.0937 32.0252C28.6968 32.2752 29.4156 32.2158 29.8562 31.7471C30.4156 31.1439 31.1062 30.1439 31.8093 29.1596C32.3093 28.4533 32.9406 28.3658 33.6031 28.6158C34.2781 28.8502 37.85 30.6158 38.5844 30.9814C39.3187 31.3502 39.8031 31.5252 39.9812 31.8346C40.1562 32.1439 40.1562 33.5971 39.5531 35.3033Z" fill="#FAFAFA"/>
<path d="M25.2742 10.1341C25.5072 9.9121 25.6574 9.89909 26.4585 9.82967C26.859 9.79496 27.4641 9.79298 27.8189 9.81269C29.4884 9.86978 30.5615 10.029 32.0741 10.6041C33.5868 11.1792 34.5444 11.7519 35.8958 12.795C37.1427 13.7967 37.8173 14.5957 38.6354 15.8867C39.7471 17.6567 40.4343 19.7662 40.7428 22.1606C40.8622 22.9573 40.8295 23.1619 40.651 23.4296C40.3396 23.9106 39.5342 23.9299 39.186 23.4053C39.0729 23.2638 39.0598 23.1135 38.9534 22.4671C38.8166 21.4701 38.7101 20.8236 38.4905 20.0355C37.6751 17.0293 35.9606 14.7062 33.4056 13.1621C31.2772 11.8838 29.4771 11.4849 26.7562 11.519C25.805 11.6014 25.6547 11.6144 25.4371 11.4315C25.0149 11.2158 24.9542 10.5149 25.2742 10.1341Z" fill="white"/>
<path d="M30.7731 15.9625C29.7741 15.4942 28.2832 15.1694 26.9728 15.1821C26.5178 15.171 26.2088 15.097 26.0412 14.9097C25.7191 14.6854 25.68 14.2348 25.8543 13.9171C26.0699 13.4949 26.4661 13.4101 27.6349 13.5106C30.5735 13.6595 32.9435 14.816 34.6321 16.8387C35.5873 17.9665 36.2138 19.375 36.4942 20.864C36.592 21.4103 36.6787 22.4117 36.646 22.6163C36.609 22.7708 36.4304 23.0385 36.2345 23.1059C36.0429 23.2235 35.6424 23.2582 35.4291 23.1253C35.0613 22.9554 34.8894 22.7181 34.8199 21.917C34.7158 20.7155 34.3026 19.4398 33.615 18.4905C32.9145 17.391 31.9309 16.5179 30.7731 15.9625Z" fill="white"/>
<path d="M32.5974 22.4625C32.3187 22.7389 31.818 22.7823 31.4959 22.558C31.2326 22.4295 31.1651 22.2336 31.0717 21.7372C30.9653 21.0907 30.776 20.6531 30.5911 20.2656C30.1125 19.3991 29.3225 19.0136 28.0578 18.9719C27.4527 18.9739 27.2939 18.8868 27.0763 18.7039C26.6911 18.3337 26.7849 17.6698 27.2138 17.3804C27.4054 17.2629 27.4554 17.2586 27.8603 17.274C28.1106 17.2523 28.4654 17.272 28.67 17.3047C29.6386 17.4225 30.3699 17.7122 31.0685 18.2066C31.9346 18.8881 32.459 19.7002 32.722 20.9889C32.8958 21.8314 32.8761 22.1862 32.5974 22.4625Z" fill="white"/>
</svg>

<svg width="50" height="50" fill="none" xmlns="http://www.w3.org/2000/svg"><path d="M25.006 0h-.012C11.209 0 0 11.213 0 25a24.814 24.814 0 004.76 14.653l-3.116 9.288 9.61-3.072A24.784 24.784 0 0025.005 50C38.791 50 50 38.784 50 25S38.79 0 25.006 0z" fill="#2DB1E6"/><path d="M39.553 35.303c-.603 1.703-2.997 3.116-4.906 3.528-1.306.279-3.013.5-8.756-1.88-7.347-3.045-12.078-10.51-12.447-10.995-.353-.484-2.969-3.953-2.969-7.54 0-3.588 1.822-5.335 2.556-6.085.603-.615 1.6-.896 2.556-.896.31 0 .588.015.838.028.734.03 1.103.075 1.587 1.234.604 1.453 2.072 5.04 2.247 5.41.178.368.357.868.107 1.353-.235.5-.441.721-.81 1.146-.369.425-.719.75-1.087 1.207-.338.397-.719.822-.294 1.556.425.719 1.894 3.116 4.056 5.04 2.79 2.485 5.053 3.279 5.863 3.616.603.25 1.322.19 1.762-.278.56-.603 1.25-1.603 1.953-2.587.5-.707 1.132-.794 1.794-.544.675.234 4.247 2 4.981 2.365.735.37 1.22.544 1.397.854.175.309.175 1.762-.428 3.468z" fill="#FAFAFA"/><path d="M25.274 10.134c.233-.222.383-.235 1.184-.304a11.336 11.336 0 011.36-.017c1.67.057 2.743.216 4.256.791 1.513.575 2.47 1.148 3.822 2.191 1.247 1.002 1.921 1.8 2.74 3.092 1.111 1.77 1.798 3.88 2.107 6.274.12.796.087 1-.092 1.269-.311.48-1.117.5-1.465-.025-.113-.141-.126-.292-.233-.938-.136-.997-.243-1.643-.463-2.431-.815-3.007-2.53-5.33-5.084-6.874-2.129-1.278-3.929-1.677-6.65-1.643-.951.082-1.101.095-1.319-.088-.422-.215-.483-.916-.163-1.297z" fill="#fff"/><path d="M30.773 15.963c-.999-.469-2.49-.794-3.8-.78-.455-.012-.764-.086-.932-.273-.322-.225-.361-.675-.187-.993.216-.422.612-.507 1.78-.406 2.94.149 5.31 1.305 6.998 3.328.955 1.128 1.582 2.536 1.862 4.025.098.546.185 1.548.152 1.752-.037.155-.216.422-.412.49-.191.117-.592.152-.805.02-.368-.17-.54-.408-.61-1.209-.103-1.202-.516-2.477-1.204-3.427a6.92 6.92 0 00-2.842-2.527z" fill="#fff"/><path d="M32.597 22.462a.905.905 0 01-1.101.096c-.263-.128-.33-.324-.424-.82a5.123 5.123 0 00-.48-1.472c-.48-.867-1.27-1.252-2.534-1.294-.605.002-.764-.085-.982-.268-.385-.37-.291-1.034.138-1.324.191-.117.241-.121.646-.106.25-.022.605-.002.81.03.969.119 1.7.408 2.398.903.867.681 1.391 1.493 1.654 2.782.174.842.154 1.197-.125 1.473z" fill="#fff"/></svg>
